X:110
T: Come West Along the Road
M: 4/4
L: 1/8
R: Reel
K: G
d2 BG dGBG|G2 (3Bcd efge|d2 BG dGBG|ABcd edce|
d2 BG dGBG|G2 (3Bcd efge|d2 BG dGBG|ABcd edBd||
g2 bg egdg|(3efg dg edBd|g2 bg egdg|ABcd edBd|
g2 bg egdg|(3efg dg edBd|gabg efge|dega bage||
